assets/dude/Design–Waylon.svg

<svg width="494" height="125" viewBox="0 0 494 125" fill="none" xmlns="http://www.w3.org/2000/svg">
<path d="M53.7294 13.72H49.2494C48.2694 13.72 47.9894 12.32 47.9894 12.32C46.3094 5.87995 40.2894 1.11995 33.2894 1.11995C26.2894 1.11995 20.2694 5.87995 18.5894 12.32C18.5894 12.32 18.3094 13.72 17.3294 13.72H1.36938C0.669375 13.72 0.109375 14.28 0.109375 14.98V47.74C0.109375 48.44 0.669375 49 1.36938 49H15.2294C15.9294 49 16.4894 49.56 16.4894 50.26V75.46C16.4894 76.16 15.9294 76.72 15.2294 76.72H1.36938C0.669375 76.72 0.109375 77.28 0.109375 77.9799V110.74C0.109375 111.44 0.669375 112 1.36938 112H17.3294C18.3094 112 18.5894 113.4 18.5894 113.4C20.2694 119.84 26.2894 124.6 33.2894 124.6C40.2894 124.6 46.3094 119.84 47.9894 113.4C47.9894 113.4 48.2694 112 49.2494 112H53.7294C70.3894 112 83.9694 98.42 83.9694 81.76V43.9599C83.9694 27.3 70.3894 13.72 53.7294 13.72ZM73.8894 67.8999C73.8894 72.8 69.9694 76.72 65.0694 76.72H27.8294C27.1294 76.72 26.5694 76.16 26.5694 75.46V50.26C26.5694 49.56 27.1294 49 27.8294 49H65.0694C69.9694 49 73.8894 52.92 73.8894 57.82V67.8999Z" fill="#FF1C31"/>
<path d="M119.568 49H158.908C162.408 49 165.208 51.38 165.208 54.88C165.208 55.58 165.768 56.14 166.468 56.14H173.748C174.448 56.14 175.008 55.58 175.008 54.88V14.98C175.008 14.28 174.448 13.72 173.748 13.72H149.388C148.408 13.72 148.128 12.32 148.128 12.32C146.448 5.87995 140.428 1.11995 133.428 1.11995C126.428 1.11995 120.408 5.87995 118.728 12.32C118.728 12.32 118.448 13.72 117.468 13.72H93.1077C92.4077 13.72 91.8477 14.28 91.8477 14.98V47.74C91.8477 48.44 92.4077 49 93.1077 49H106.968C107.668 49 108.228 49.56 108.228 50.26V75.46C108.228 76.16 107.668 76.72 106.968 76.72H93.1077C92.4077 76.72 91.8477 77.28 91.8477 77.9799V110.74C91.8477 111.44 92.4077 112 93.1077 112H117.468C118.448 112 118.728 113.4 118.728 113.4C120.408 119.84 126.428 124.6 133.428 124.6C140.428 124.6 146.448 119.84 148.128 113.4C148.128 113.4 148.408 112 149.388 112H173.748C174.448 112 175.008 111.44 175.008 110.74V70.84C175.008 70.1399 174.448 69.58 173.748 69.58H166.468C165.768 69.58 165.208 70.1399 165.208 70.84C165.208 74.3399 162.408 76.72 158.908 76.72H119.568C118.868 76.72 118.308 76.16 118.308 75.46V67.8999C118.308 67.1999 118.868 66.64 119.568 66.64H131.328C132.028 66.64 132.588 67.1999 132.588 67.8999V69.16C132.588 69.8599 133.148 70.42 133.848 70.42H152.748C153.448 70.42 154.008 69.8599 154.008 69.16V56.56C154.008 55.86 153.448 55.2999 152.748 55.2999H133.848C133.148 55.2999 132.588 55.86 132.588 56.56V57.82C132.588 58.52 132.028 59.0799 131.328 59.0799H119.568C118.868 59.0799 118.308 58.52 118.308 57.82V50.26C118.308 49.56 118.868 49 119.568 49Z" fill="#FF1C31"/>
<path d="M203.336 52.78C203.336 50.68 205.436 49 207.536 49H240.296C243.796 49 246.596 51.38 246.596 54.88C246.596 55.58 247.156 56.14 247.856 56.14H255.136C255.836 56.14 256.396 55.58 256.396 54.88V41.3C256.396 28.6999 247.856 18.2 236.236 14.84C235.256 14.5599 235.396 13.8599 235.116 12.7399C233.436 6.15995 227.556 1.11995 220.416 1.11995C213.276 1.11995 207.396 6.15995 205.716 12.7399C205.436 13.8599 205.576 14.5599 204.596 14.84C192.976 18.2 184.436 28.8399 184.436 41.44V45.22C184.436 79.24 240.996 57.8199 240.996 72.9399C240.996 75.04 239.316 76.72 237.216 76.72H199.276C195.776 76.72 192.976 74.3399 192.976 70.84C192.976 70.1399 192.416 69.58 191.716 69.58H184.436C183.736 69.58 183.176 70.1399 183.176 70.84V84.28C183.176 97.72 193.116 108.92 205.716 111.44C206.416 111.58 206.696 112.42 206.836 112.98C208.656 119.98 214.396 124.6 221.536 124.6C228.816 124.6 234.976 119.56 236.376 112.56C236.516 111.86 237.356 111.44 238.056 111.3C250.516 108.78 259.896 97.58 259.896 84.28V80.5C259.896 46.48 203.336 67.9 203.336 52.78Z" fill="#FF1C31"/>
<path d="M266.848 110.74C266.848 111.44 267.408 112 268.108 112H272.308C273.288 112 273.568 113.4 273.568 113.4C275.248 119.84 281.268 124.6 288.268 124.6C295.268 124.6 301.288 119.84 302.968 113.4C302.968 113.4 303.248 112 304.228 112H308.428C309.128 112 309.688 111.44 309.688 110.74V77.9799C309.688 77.28 309.128 76.72 308.428 76.72H294.568C293.868 76.72 293.308 76.16 293.308 75.46V50.26C293.308 49.56 293.868 49 294.568 49H308.428C309.128 49 309.688 48.44 309.688 47.74V14.98C309.688 14.28 309.128 13.72 308.428 13.72H304.228C303.248 13.72 302.968 12.32 302.968 12.32C301.288 5.87995 295.268 1.11995 288.268 1.11995C281.268 1.11995 275.248 5.87995 273.568 12.32C273.568 12.32 273.288 13.72 272.308 13.72H268.108C267.408 13.72 266.848 14.28 266.848 14.98V47.74C266.848 48.44 267.408 49 268.108 49H281.968C282.668 49 283.228 49.56 283.228 50.26V75.46C283.228 76.16 282.668 76.72 281.968 76.72H268.108C267.408 76.72 266.848 77.28 266.848 77.9799V110.74Z" fill="#FF1C31"/>
<path d="M369.65 15.9599C368.81 15.54 367.97 15.3999 367.83 13.8599C367.13 6.57995 360.69 0.839949 353.27 0.699951H352.85C345.15 0.699951 338.57 6.43995 337.87 13.8599C337.73 15.3999 336.89 15.54 336.05 15.9599C325.97 20.9999 317.57 31.2199 317.57 43.2599V82.32C317.57 94.36 325.97 104.58 336.05 109.62C336.89 110.04 337.73 110.18 337.87 111.72C338.57 119.14 345.15 124.88 352.85 124.88H353.27C360.69 124.74 367.13 119 367.83 111.72C367.97 110.18 368.81 110.04 369.65 109.62C379.73 104.58 387.57 94.36 387.57 82.32V62.86C387.57 62.16 387.01 61.6 386.31 61.6H362.37C361.67 61.6 361.11 62.16 361.11 62.86V67.8999C361.11 68.6 361.67 69.16 362.37 69.16H376.23C376.93 69.16 377.49 69.72 377.49 70.42V71.3999C377.49 74.8999 374.69 77.28 371.19 77.28H338.01C331.85 77.28 326.81 72.24 326.81 66.08V59.4999C326.81 53.3399 331.85 48.3 338.01 48.3H371.47C374.97 48.3 377.77 50.68 377.77 54.18C377.77 54.88 378.33 55.4399 379.03 55.4399H386.31C387.01 55.4399 387.57 54.88 387.57 54.18V43.2599C387.57 31.2199 379.73 20.9999 369.65 15.9599Z" fill="#FF1C31"/>
<path d="M492.663 13.72H488.463C487.483 13.72 487.203 12.32 487.203 12.32C485.523 5.87995 479.503 1.11995 472.503 1.11995C465.503 1.11995 459.483 5.87995 457.803 12.32C457.803 12.32 457.523 13.72 456.543 13.72H452.343C451.643 13.72 451.083 14.28 451.083 14.98V47.74C451.083 48.44 451.643 49 452.343 49H466.203C466.903 49 467.463 49.56 467.463 50.26V75.46C467.463 76.16 466.903 76.72 466.203 76.72H456.403C455.143 76.72 454.443 75.18 454.443 75.18L431.483 12.32C429.803 5.87995 423.783 1.11995 416.783 1.11995C409.783 1.11995 403.763 5.87995 402.083 12.32C402.083 12.32 401.803 13.72 400.823 13.72H396.623C395.923 13.72 395.363 14.28 395.363 14.98V47.74C395.363 48.44 395.923 49 396.623 49H410.483C411.183 49 411.743 49.56 411.743 50.26V75.46C411.743 76.16 411.183 76.72 410.483 76.72H396.623C395.923 76.72 395.363 77.28 395.363 77.9799V110.74C395.363 111.44 395.923 112 396.623 112H400.823C401.803 112 402.083 113.4 402.083 113.4C403.763 119.84 409.783 124.6 416.783 124.6C423.783 124.6 429.803 119.84 431.483 113.4C431.483 113.4 431.763 112 432.743 112H436.943C437.643 112 438.203 111.44 438.203 110.74V77.9799C438.203 77.28 437.643 76.72 436.943 76.72H423.083C422.383 76.72 421.823 76.16 421.823 75.46V50.26C421.823 49.56 422.383 49 423.083 49H432.883C434.143 49 434.843 50.54 434.843 50.54L457.803 113.4C459.483 119.84 465.503 124.6 472.503 124.6C479.503 124.6 485.523 119.84 487.203 113.4C487.203 113.4 487.483 112 488.463 112H491.543C492.243 112 492.803 111.44 492.803 110.74V77.9799C492.803 77.28 492.243 76.72 491.543 76.72H478.803C478.103 76.72 477.543 76.16 477.543 75.46V50.26C477.543 49.56 478.103 49 478.803 49H492.663C493.363 49 493.923 48.44 493.923 47.74V14.98C493.923 14.28 493.363 13.72 492.663 13.72Z" fill="#FF1C31"/>
</svg>

<svg xmlns="http://www.w3.org/2000/svg" fill="none" viewBox="0 0 494 125"><path fill="#FF1C31" d="M53.73 13.72h-4.48c-.98 0-1.26-1.4-1.26-1.4-1.68-6.44-7.7-11.2-14.7-11.2-7 0-13.02 4.76-14.7 11.2 0 0-.28 1.4-1.26 1.4H1.37c-.7 0-1.26.56-1.26 1.26v32.76c0 .7.56 1.26 1.26 1.26h13.86c.7 0 1.26.56 1.26 1.26v25.2c0 .7-.56 1.26-1.26 1.26H1.37c-.7 0-1.26.56-1.26 1.26v32.76c0 .7.56 1.26 1.26 1.26h15.96c.98 0 1.26 1.4 1.26 1.4 1.68 6.44 7.7 11.2 14.7 11.2 7 0 13.02-4.76 14.7-11.2 0 0 .28-1.4 1.26-1.4h4.48c16.66 0 30.24-13.58 30.24-30.24v-37.8c0-16.66-13.58-30.24-30.24-30.24zM73.89 67.9c0 4.9-3.92 8.82-8.82 8.82H27.83c-.7 0-1.26-.56-1.26-1.26v-25.2c0-.7.56-1.26 1.26-1.26h37.24c4.9 0 8.82 3.92 8.82 8.82V67.9zM119.568 49h39.34c3.5 0 6.3 2.38 6.3 5.88 0 .7.56 1.26 1.26 1.26h7.28c.7 0 1.26-.56 1.26-1.26v-39.9c0-.7-.56-1.26-1.26-1.26h-24.36c-.98 0-1.26-1.4-1.26-1.4-1.68-6.44-7.7-11.2-14.7-11.2-7 0-13.02 4.76-14.7 11.2 0 0-.28 1.4-1.26 1.4h-24.36c-.7 0-1.26.56-1.26 1.26v32.76c0 .7.56 1.26 1.26 1.26h13.86c.7 0 1.26.56 1.26 1.26v25.2c0 .7-.56 1.26-1.26 1.26h-13.86c-.7 0-1.26.56-1.26 1.26v32.76c0 .7.56 1.26 1.26 1.26h24.36c.98 0 1.26 1.4 1.26 1.4 1.68 6.44 7.7 11.2 14.7 11.2 7 0 13.02-4.76 14.7-11.2 0 0 .28-1.4 1.26-1.4h24.36c.7 0 1.26-.56 1.26-1.26v-39.9c0-.7-.56-1.26-1.26-1.26h-7.28c-.7 0-1.26.56-1.26 1.26 0 3.5-2.8 5.88-6.3 5.88h-39.34c-.7 0-1.26-.56-1.26-1.26V67.9c0-.7.56-1.26 1.26-1.26h11.76c.7 0 1.26.56 1.26 1.26v1.26c0 .7.56 1.26 1.26 1.26h18.9c.7 0 1.26-.56 1.26-1.26v-12.6c0-.7-.56-1.26-1.26-1.26h-18.9c-.7 0-1.26.56-1.26 1.26v1.26c0 .7-.56 1.26-1.26 1.26h-11.76c-.7 0-1.26-.56-1.26-1.26v-7.56c0-.7.56-1.26 1.26-1.26zM203.336 52.78c0-2.1 2.1-3.78 4.2-3.78h32.76c3.5 0 6.3 2.38 6.3 5.88 0 .7.56 1.26 1.26 1.26h7.28c.7 0 1.26-.56 1.26-1.26V41.3c0-12.6-8.54-23.1-20.16-26.46-.98-.28-.84-.98-1.12-2.1-1.68-6.58-7.56-11.62-14.7-11.62s-13.02 5.04-14.7 11.62c-.28 1.12-.14 1.82-1.12 2.1-11.62 3.36-20.16 14-20.16 26.6v3.78c0 34.02 56.56 12.6 56.56 27.72 0 2.1-1.68 3.78-3.78 3.78h-37.94c-3.5 0-6.3-2.38-6.3-5.88 0-.7-.56-1.26-1.26-1.26h-7.28c-.7 0-1.26.56-1.26 1.26v13.44c0 13.44 9.94 24.64 22.54 27.16.7.14.98.98 1.12 1.54 1.82 7 7.56 11.62 14.7 11.62 7.28 0 13.44-5.04 14.84-12.04.14-.7.98-1.12 1.68-1.26 12.46-2.52 21.84-13.72 21.84-27.02V80.5c0-34.02-56.56-12.6-56.56-27.72zM266.848 110.74c0 .7.56 1.26 1.26 1.26h4.2c.98 0 1.26 1.4 1.26 1.4 1.68 6.44 7.7 11.2 14.7 11.2 7 0 13.02-4.76 14.7-11.2 0 0 .28-1.4 1.26-1.4h4.2c.7 0 1.26-.56 1.26-1.26V77.98c0-.7-.56-1.26-1.26-1.26h-13.86c-.7 0-1.26-.56-1.26-1.26v-25.2c0-.7.56-1.26 1.26-1.26h13.86c.7 0 1.26-.56 1.26-1.26V14.98c0-.7-.56-1.26-1.26-1.26h-4.2c-.98 0-1.26-1.4-1.26-1.4-1.68-6.44-7.7-11.2-14.7-11.2-7 0-13.02 4.76-14.7 11.2 0 0-.28 1.4-1.26 1.4h-4.2c-.7 0-1.26.56-1.26 1.26v32.76c0 .7.56 1.26 1.26 1.26h13.86c.7 0 1.26.56 1.26 1.26v25.2c0 .7-.56 1.26-1.26 1.26h-13.86c-.7 0-1.26.56-1.26 1.26v32.76zM369.65 15.96c-.84-.42-1.68-.56-1.82-2.1-.7-7.28-7.14-13.02-14.56-13.16h-.42c-7.7 0-14.28 5.74-14.98 13.16-.14 1.54-.98 1.68-1.82 2.1-10.08 5.04-18.48 15.26-18.48 27.3v39.06c0 12.04 8.4 22.26 18.48 27.3.84.42 1.68.56 1.82 2.1.7 7.42 7.28 13.16 14.98 13.16h.42c7.42-.14 13.86-5.88 14.56-13.16.14-1.54.98-1.68 1.82-2.1 10.08-5.04 17.92-15.26 17.92-27.3V62.86c0-.7-.56-1.26-1.26-1.26h-23.94c-.7 0-1.26.56-1.26 1.26v5.04c0 .7.56 1.26 1.26 1.26h13.86c.7 0 1.26.56 1.26 1.26v.98c0 3.5-2.8 5.88-6.3 5.88h-33.18c-6.16 0-11.2-5.04-11.2-11.2V59.5c0-6.16 5.04-11.2 11.2-11.2h33.46c3.5 0 6.3 2.38 6.3 5.88 0 .7.56 1.26 1.26 1.26h7.28c.7 0 1.26-.56 1.26-1.26V43.26c0-12.04-7.84-22.26-17.92-27.3zM492.663 13.72h-4.2c-.98 0-1.26-1.4-1.26-1.4-1.68-6.44-7.7-11.2-14.7-11.2-7 0-13.02 4.76-14.7 11.2 0 0-.28 1.4-1.26 1.4h-4.2c-.7 0-1.26.56-1.26 1.26v32.76c0 .7.56 1.26 1.26 1.26h13.86c.7 0 1.26.56 1.26 1.26v25.2c0 .7-.56 1.26-1.26 1.26h-9.8c-1.26 0-1.96-1.54-1.96-1.54l-22.96-62.86c-1.68-6.44-7.7-11.2-14.7-11.2-7 0-13.02 4.76-14.7 11.2 0 0-.28 1.4-1.26 1.4h-4.2c-.7 0-1.26.56-1.26 1.26v32.76c0 .7.56 1.26 1.26 1.26h13.86c.7 0 1.26.56 1.26 1.26v25.2c0 .7-.56 1.26-1.26 1.26h-13.86c-.7 0-1.26.56-1.26 1.26v32.76c0 .7.56 1.26 1.26 1.26h4.2c.98 0 1.26 1.4 1.26 1.4 1.68 6.44 7.7 11.2 14.7 11.2 7 0 13.02-4.76 14.7-11.2 0 0 .28-1.4 1.26-1.4h4.2c.7 0 1.26-.56 1.26-1.26V77.98c0-.7-.56-1.26-1.26-1.26h-13.86c-.7 0-1.26-.56-1.26-1.26v-25.2c0-.7.56-1.26 1.26-1.26h9.8c1.26 0 1.96 1.54 1.96 1.54l22.96 62.86c1.68 6.44 7.7 11.2 14.7 11.2 7 0 13.02-4.76 14.7-11.2 0 0 .28-1.4 1.26-1.4h3.08c.7 0 1.26-.56 1.26-1.26V77.98c0-.7-.56-1.26-1.26-1.26h-12.74c-.7 0-1.26-.56-1.26-1.26v-25.2c0-.7.56-1.26 1.26-1.26h13.86c.7 0 1.26-.56 1.26-1.26V14.98c0-.7-.56-1.26-1.26-1.26z"/></svg>
